X:5801
T:Gan Ainm
R:Reel
C:
S:Oisin McDiarmada
H:
N:
D:R na G Live Recording 
Z:Adrian Scahill
M:4/4
L:1/8
K:Gm
dGGF G2BG|GFDG FGBc|dGGF G2FG|1 BcdB cABc:|2 BcdB cedc||\
B2dc Bdfd|edcd deef|d3c Bdfg|fdBd cedc|\
B2dc Bdfd|edcd e3a|bgfd egbg|fedB cABc||\
